exported-svg/battery-charging.svg

<svg height="24" viewBox="0 0 24 24" width="24" xmlns="http://www.w3.org/2000/svg"><path d="m6 17.5c.27614237 0 .5.2238576.5.5s-.22385763.5-.5.5h-2c-1.38071187 0-2.5-1.1192881-2.5-2.5v-8c0-1.38071187 1.11928813-2.5 2.5-2.5h3.19c.27614237 0 .5.22385763.5.5s-.22385763.5-.5.5h-3.19c-.82842712 0-1.5.67157288-1.5 1.5v8c0 .8284271.67157288 1.5 1.5 1.5zm10-11c-.2761424 0-.5-.22385763-.5-.5s.2238576-.5.5-.5h2c1.3807119 0 2.5 1.11928813 2.5 2.5v8c0 1.3807119-1.1192881 2.5-2.5 2.5h-3.19c-.2761424 0-.5-.2238576-.5-.5s.2238576-.5.5-.5h3.19c.8284271 0 1.5-.6715729 1.5-1.5v-8c0-.82842712-.6715729-1.5-1.5-1.5zm6.5 6.5c0 .2761424-.2238576.5-.5.5s-.5-.2238576-.5-.5v-2c0-.2761424.2238576-.5.5-.5s.5.2238576.5.5zm-9.4342585-.5h-5.0657415c-.39934769 0-.63754339-.4450727-.41602515-.7773501l4.00000005-6c.1531762-.22976434.4636109-.29185128.6933752-.13867505s.2918513.4636109.138675.69337525l-3.48176655 5.2226499h5.06574145c.3993477 0 .6375434.4450727.4160251.7773501l-4 6c-.1531762.2297643-.46361085.2918513-.6933752.138675-.22976434-.1531762-.29185128-.4636109-.13867505-.6933752z"/></svg>

<?xml version="1.0" encoding="UTF-8"?>
<svg width="24px" height="24px" viewBox="0 0 24 24" version="1.1" xmlns="http://www.w3.org/2000/svg" xmlns:xlink="http://www.w3.org/1999/xlink">
    <!-- Generator: Sketch 55.2 (78181) - https://sketchapp.com -->
    <title>battery-charging</title>
    <desc>Created with Sketch.</desc>
    <g id="battery-charging" stroke="none" stroke-width="1" fill="none" fill-rule="evenodd">
        <path d="M6,17.5 C6.27614237,17.5 6.5,17.7238576 6.5,18 C6.5,18.2761424 6.27614237,18.5 6,18.5 L4,18.5 C2.61928813,18.5 1.5,17.3807119 1.5,16 L1.5,8 C1.5,6.61928813 2.61928813,5.5 4,5.5 L7.19,5.5 C7.46614237,5.5 7.69,5.72385763 7.69,6 C7.69,6.27614237 7.46614237,6.5 7.19,6.5 L4,6.5 C3.17157288,6.5 2.5,7.17157288 2.5,8 L2.5,16 C2.5,16.8284271 3.17157288,17.5 4,17.5 L6,17.5 Z M16,6.5 C15.7238576,6.5 15.5,6.27614237 15.5,6 C15.5,5.72385763 15.7238576,5.5 16,5.5 L18,5.5 C19.3807119,5.5 20.5,6.61928813 20.5,8 L20.5,16 C20.5,17.3807119 19.3807119,18.5 18,18.5 L14.81,18.5 C14.5338576,18.5 14.31,18.2761424 14.31,18 C14.31,17.7238576 14.5338576,17.5 14.81,17.5 L18,17.5 C18.8284271,17.5 19.5,16.8284271 19.5,16 L19.5,8 C19.5,7.17157288 18.8284271,6.5 18,6.5 L16,6.5 Z" id="Shape" fill="#000000" fill-rule="nonzero"></path>
        <path d="M22.5,13 L22.5,11 C22.5,10.7238576 22.2761424,10.5 22,10.5 C21.7238576,10.5 21.5,10.7238576 21.5,11 L21.5,13 C21.5,13.2761424 21.7238576,13.5 22,13.5 C22.2761424,13.5 22.5,13.2761424 22.5,13 Z" id="Shape" fill="#000000" fill-rule="nonzero"></path>
        <path d="M13.0657415,12.5 L9.58397485,17.7226499 C9.43079862,17.9524142 9.49288556,18.2628489 9.7226499,18.4160251 C9.95241425,18.5692014 10.2628489,18.5071144 10.4160251,18.2773501 L14.4160251,12.2773501 C14.6375434,11.9450727 14.3993477,11.5 14,11.5 L8.93425855,11.5 L12.4160251,6.2773501 C12.5692014,6.04758575 12.5071144,5.73715108 12.2773501,5.58397485 C12.0475858,5.43079862 11.7371511,5.49288556 11.5839749,5.7226499 L7.58397485,11.7226499 C7.36245661,12.0549273 7.60065231,12.5 8,12.5 L13.0657415,12.5 Z" id="Shape" fill="#000000" fill-rule="nonzero"></path>
    </g>
</svg>
